X: 1325
T: Charlie Batchelor's Lost Jig
B: australian traditional tunes wiki
M:6/8
L:1/8
R: Jig
Q: 3/8=100
K:G
V:1 
"D7"DEF|: "G"G2G GAG |"G"B2d b2f|"G"a2g g2B|"C"d2c c3|
"D"AGA AGA|"D"A2c a2f|1"D7"fed cAc|"G"B3-B2z:|2"D7"fed cBA|"G"G3-G2z|:
"D"d2d "D7"ABc|"G"B2AG3|1"D"d2d "D7"ABc|"G"B3-B3:|2"D"ded "D7"cBA|"G"G3-G3||
% abcbook-tune_id 6342d53aedac6019b4ada024


% abcbook-boost 0
% abcbook-tablature 
% abcbook-transpose 
% abcbook-lastupdated 1665324359227
% abcbook-soundfonts 
% abcbook-repeats 1
% NFF Book 2006

